X: 16675
T: Hanter Dro De Storvan
R: jig
M: 6/8
K: Eminor
|:Bc/B/ G>A BA|Bc/B/ G>A BA|Bc/B/ GA B2:|
|:Bc/B/ AB G>A|BA/G/ FA GE|Bc/B/ AB G>A|BA/G/ FD E2:|
|:B2 cB G3 A B2 A2|B2 cB G3 A B2 A2|B2 cB G2 A2 B4:|
|:B2 cB A2 B2 G3 A|B2 AG F2 A2 G2 E2|B2 cB A2 B2 G3 A|B2 AG F2 D2 E4:|

